www/assets/icons/audio_file.svg

<svg xmlns="http://www.w3.org/2000/svg" width="24" height="24" viewBox="0 0 24 24" fill='currentColor'><path d="M14 2H6c-1.1 0-1.99.9-1.99 2L4 20c0 1.1.89 2 1.99 2H18c1.1 0 2-.9 2-2V8zm2 11h-3v3.75c0 1.24-1.01 2.25-2.25 2.25S8.5 17.99 8.5 16.75s1.01-2.25 2.25-2.25c.46 0 .89.14 1.25.38V11h4zm-3-4V3.5L18.5 9z"/></svg>

<svg width="24" height="24" viewBox="0 0 24 24" xmlns="http://www.w3.org/2000/svg" fill='currentColor'><path d="M14 2H6C4.9 2 4.01 2.9 4.01 4L4 20C4 21.1 4.89 22 5.99 22H18C19.1 22 20 21.1 20 20V8L14 2ZM16 13H13V16.75C13 17.99 11.99 19 10.75 19C9.51 19 8.5 17.99 8.5 16.75C8.5 15.51 9.51 14.5 10.75 14.5C11.21 14.5 11.64 14.64 12 14.88V11H16V13ZM13 9V3.5L18.5 9H13Z"/></svg>
